svg/editor/quote_left_line.svg

<?xml version="1.0" encoding="UTF-8"?>
<svg width="24px" height="24px" viewBox="0 0 24 24" version="1.1" xmlns="http://www.w3.org/2000/svg" xmlns:xlink="http://www.w3.org/1999/xlink">
    <title>quote_left_line</title>
    <g id="页面-1" stroke="none" stroke-width="1" fill="none" fill-rule="evenodd">
        <g id="Editor" transform="translate(-624.000000, -96.000000)">
            <g id="quote_left_line" transform="translate(624.000000, 96.000000)">
                 <path d="M24,0 L24,24 L0,24 L0,0 L24,0 Z M12.5934901,23.257841 L12.5819402,23.2595131 L12.5108777,23.2950439 L12.4918791,23.2987469 L12.4918791,23.2987469 L12.4767152,23.2950439 L12.4056548,23.2595131 C12.3958229,23.2563662 12.3870493,23.2590235 12.3821421,23.2649074 L12.3780323,23.275831 L12.360941,23.7031097 L12.3658947,23.7234994 L12.3769048,23.7357139 L12.4804777,23.8096931 L12.4953491,23.8136134 L12.4953491,23.8136134 L12.5071152,23.8096931 L12.6106902,23.7357139 L12.6232938,23.7196733 L12.6232938,23.7196733 L12.6266527,23.7031097 L12.609561,23.275831 C12.6075724,23.2657013 12.6010112,23.2592993 12.5934901,23.257841 L12.5934901,23.257841 Z M12.8583906,23.1452862 L12.8445485,23.1473072 L12.6598443,23.2396597 L12.6498822,23.2499052 L12.6498822,23.2499052 L12.6471943,23.2611114 L12.6650943,23.6906389 L12.6699349,23.7034178 L12.6699349,23.7034178 L12.678386,23.7104931 L12.8793402,23.8032389 C12.8914285,23.8068999 12.9022333,23.8029875 12.9078286,23.7952264 L12.9118235,23.7811639 L12.8776777,23.1665331 C12.8752882,23.1545897 12.8674102,23.1470016 12.8583906,23.1452862 L12.8583906,23.1452862 Z M12.1430473,23.1473072 C12.1332178,23.1423925 12.1221763,23.1452606 12.1156365,23.1525954 L12.1099173,23.1665331 L12.0757714,23.7811639 C12.0751323,23.7926639 12.0828099,23.8018602 12.0926481,23.8045676 L12.108256,23.8032389 L12.3092106,23.7104931 L12.3186497,23.7024347 L12.3186497,23.7024347 L12.3225043,23.6906389 L12.340401,23.2611114 L12.337245,23.2485176 L12.337245,23.2485176 L12.3277531,23.2396597 L12.1430473,23.1473072 Z" id="MingCute" fill-rule="nonzero"></path>
                <path d="M9.80001,6.40005 C10.1314,6.84188 10.0418,7.46868 9.60002,7.80006 C8.03601,8.97308 7.13903,10.1135 6.62708,11.1098 C6.90613,11.0382 7.19863,11.0001 7.50003,11.0001 C9.43303,11.0001 11,12.5671 11,14.5001 C11,16.4331 9.43303,18.0001 7.50003,18.0001 C5.58647,18.0001 4.03157,16.4644 4.0005,14.5582 C3.91027,13.6932 3.92337,12.4171 4.50804,10.9437 C5.10548,9.43818 6.27242,7.79577 8.40001,6.20006 C8.84184,5.86869 9.46864,5.95823 9.80001,6.40005 Z M17.4,6.20006 C17.8418,5.86869 18.4686,5.95823 18.8,6.40005 C19.1314,6.84188 19.0418,7.46868 18.6,7.80006 C17.036,8.97308 16.139,10.1135 15.6271,11.1098 C15.9061,11.0382 16.1986,11.0001 16.5,11.0001 C18.433,11.0001 20,12.5671 20,14.5001 C20,16.4331 18.433,18.0001 16.5,18.0001 C14.5865,18.0001 13.0316,16.4644 13.0005,14.5582 C12.9103,13.6932 12.9234,12.4171 13.508,10.9437 C14.1055,9.43818 15.2724,7.79577 17.4,6.20006 Z M7.50003,13.0001 C6.72306059,13.0001 6.08405657,13.5907602 6.0076747,14.3476406 L6.00005,14.5102 C6.00553,15.334 6.67499,16.0001 7.50003,16.0001 C8.32846,16.0001 9.00003,15.3285 9.00003,14.5001 C9.00003,13.6716 8.32846,13.0001 7.50003,13.0001 Z M16.5,13.0001 C15.7230588,13.0001 15.0840388,13.5908488 15.0077133,14.3476563 L15.0001,14.5102 C15.0055,15.334 15.675,16.0001 16.5,16.0001 C17.3285,16.0001 18,15.3285 18,14.5001 C18,13.6716 17.3285,13.0001 16.5,13.0001 Z" id="形状" fill="#09244B"></path>
            </g>
        </g>
    </g>
</svg>

<svg xmlns="http://www.w3.org/2000/svg" width="24" height="24"><g fill="none" fill-rule="evenodd"><path d="M24 0v24H0V0h24ZM12.593 23.258l-.011.002-.071.035-.02.004-.014-.004-.071-.035c-.01-.004-.019-.001-.024.005l-.004.01-.017.428.005.02.01.013.104.074.015.004.012-.004.104-.074.012-.016.004-.017-.017-.427c-.002-.01-.009-.017-.017-.018Zm.265-.113-.013.002-.185.093-.01.01-.003.011.018.43.005.012.008.007.201.093c.012.004.023 0 .029-.008l.004-.014-.034-.614c-.003-.012-.01-.02-.02-.022Zm-.715.002a.023.023 0 0 0-.027.006l-.006.014-.034.614c0 .012.007.02.017.024l.015-.002.201-.093.01-.008.004-.011.017-.43-.003-.012-.01-.01-.184-.092Z"/><path fill="#09244B" d="M9.8 6.4a1 1 0 0 1-.2 1.4c-1.564 1.173-2.461 2.314-2.973 3.31A3.5 3.5 0 1 1 4 14.558a7.566 7.566 0 0 1 .508-3.614C5.105 9.438 6.272 7.796 8.4 6.2a1 1 0 0 1 1.4.2Zm7.6-.2a1 1 0 0 1 1.2 1.6c-1.564 1.173-2.461 2.314-2.973 3.31A3.5 3.5 0 1 1 13 14.558a7.567 7.567 0 0 1 .508-3.614c.598-1.506 1.764-3.148 3.892-4.744ZM7.5 13a1.5 1.5 0 0 0-1.492 1.348L6 14.51A1.5 1.5 0 1 0 7.5 13Zm9 0a1.5 1.5 0 0 0-1.492 1.348L15 14.51A1.5 1.5 0 1 0 16.5 13Z"/></g></svg>
